icons/solid/device-mobile.svg

<svg width="24" height="24" viewBox="0 0 24 24" fill="none" xmlns="http://www.w3.org/2000/svg">
<path fill-rule="evenodd" clip-rule="evenodd" d="M8 22C6.34315 22 5 20.6569 5 19V5C5 3.34315 6.34315 2 8 2H16C17.6569 2 19 3.34314 19 5L19 19C19 20.6569 17.6569 22 16 22H8ZM11 18C10.4477 18 10 18.4477 10 19C10 19.5523 10.4477 20 11 20H13C13.5523 20 14 19.5523 14 19C14 18.4477 13.5523 18 13 18H11Z" fill="currentColor"/>
</svg>

<svg width="24" height="24" fill="none" xmlns="http://www.w3.org/2000/svg"><path fill-rule="evenodd" clip-rule="evenodd" d="M8 22a3 3 0 01-3-3V5a3 3 0 013-3h8a3 3 0 013 3v14a3 3 0 01-3 3H8zm3-4a1 1 0 100 2h2a1 1 0 100-2h-2z" fill="currentColor"/></svg>
